material-icons/material-design-light/scalable/applications/linode.svg

﻿<?xml version="1.0" encoding="utf-8"?>
<!DOCTYPE svg PUBLIC "-//W3C//DTD SVG 1.1//EN" "http://www.w3.org/Graphics/SVG/1.1/DTD/svg11.dtd">
<svg xmlns="http://www.w3.org/2000/svg" xmlns:xlink="http://www.w3.org/1999/xlink" version="1.1" baseProfile="full" width="24" height="24" viewBox="0 0 24.00 24.00" enable-background="new 0 0 24.00 24.00" xml:space="preserve">
	<path fill="#000000" fill-opacity="1" stroke-linejoin="round" d="M 7.11073,19.1254L 9.36729,21.5206L 8.98102,18.8831L 6.5698,16.5117L 7.11073,19.1254 Z M 9.54108,22L 9.51905,21.9979L 9.49707,21.9916L 9.48034,21.9835L 9.45363,21.9623L 6.91302,19.2652C 6.89774,19.249 6.88739,19.229 6.88289,19.2074L 6.25469,16.1734L 6.25289,16.1354C 6.25481,16.1195 6.25982,16.1043 6.26746,16.0907C 6.2774,16.073 6.29179,16.0579 6.30961,16.047L 6.98428,15.6344L 5.96613,14.6754C 5.94821,14.6585 5.93596,14.6366 5.93095,14.6125L 5.12016,10.6949L 5.11857,10.6556C 5.12057,10.6396 5.12572,10.6245 5.13347,10.611C 5.14343,10.5936 5.15782,10.5785 5.17583,10.5677L 5.18602,10.5623L 6.24351,10.0588L 4.78081,8.91878C 4.75817,8.90119 4.74299,8.87636 4.73709,8.84854L 3.65941,3.64348L 3.65798,3.60382L 3.6645,3.57735C 3.6728,3.55494 3.68778,3.53503 3.70831,3.52071L 3.7411,3.50446L 8.57105,1.99999C 8.60005,1.9909 8.63132,1.99326 8.65884,2.00655L 12.2001,3.71533L 12.2139,3.72295C 12.246,3.7442 12.2661,3.77946 12.2678,3.81818L 12.4885,8.98131C 12.4904,9.02785 12.4654,9.07132 12.4242,9.09286L 11.1098,9.77677L 12.5137,10.7197L 12.514,10.7199L 12.5206,10.7247C 12.5503,10.7478 12.5676,10.7835 12.5672,10.8215L 12.6254,12.1859L 13.9746,11.3611C 14.0144,11.3367 14.0645,11.3376 14.1034,11.3634L 15.0412,11.9828L 15.0657,10.7588C 15.0665,10.7181 15.0882,10.6805 15.123,10.6592L 17.4284,9.24979C 17.4653,9.22707 17.5114,9.22631 17.5491,9.24702L 20.2803,10.7604L 20.2841,10.7627C 20.3181,10.783 20.3398,10.8188 20.342,10.8584L 20.3412,10.8814L 19.9621,13.6865C 19.9579,13.717 19.9421,13.745 19.918,13.7643L 17.7808,15.4676C 17.7734,15.4735 17.7654,15.4785 17.757,15.4824C 17.7409,15.4899 17.7234,15.4936 17.7043,15.4936C 17.6916,15.4934 17.6788,15.4912 17.6664,15.487C 17.6607,15.4849 17.655,15.4825 17.6494,15.4796C 17.6431,15.4762 17.6371,15.4722 17.6316,15.4679L 16.8406,14.9174L 16.7609,16.2283C 16.7588,16.2623 16.7427,16.2938 16.7159,16.3152L 14.1014,18.4002L 14.0729,18.4191C 14.0567,18.4268 14.0393,18.4306 14.0217,18.4306C 14.0041,18.4306 13.9864,18.4266 13.97,18.419L 13.9444,18.4024L 12.8526,17.4835L 12.929,19.2712C 12.9306,19.3093 12.9139,19.346 12.8839,19.3701L 9.61573,21.9737L 9.59322,21.988C 9.57668,21.9963 9.55884,22 9.54108,22 Z M 16.8849,13.2004C 16.8987,13.2097 16.9102,13.2215 16.919,13.235C 16.9312,13.2537 16.9381,13.2756 16.9386,13.2984L 16.9385,13.3078L 16.9384,13.3085L 16.8577,14.6371L 17.6047,15.157L 17.8301,12.5503L 15.3013,10.9745L 15.2779,12.1392L 16.8849,13.2004 Z M 13.8771,15.3786L 12.724,14.4985L 12.7328,14.7048C 12.7348,14.7463 12.7148,14.7858 12.68,14.8092L 11.8104,15.3951L 12.7561,16.1671L 12.7831,16.1982C 12.7932,16.2151 12.7992,16.2345 12.8001,16.2548L 12.8387,17.1582L 13.8995,18.0512L 13.8771,15.3786 Z M 6.1582,14.5268L 8.6925,16.9143L 8.15772,13.2598L 5.42442,10.9826L 6.1582,14.5268 Z M 4.96286,8.75681L 7.82574,10.988L 7.06671,5.80581L 3.95096,3.86844L 4.96286,8.75681 Z M 18.0707,12.5529L 17.8497,15.1061L 19.7309,13.6065L 20.0663,11.1245L 18.0707,12.5529 Z M 14.1394,18.0633L 16.5248,16.1607L 16.6838,13.5444L 14.1172,15.3803L 14.1394,18.0633 Z M 12.6868,19.2206L 12.5699,16.4863L 9.22294,18.8809L 9.62957,21.6562L 12.6868,19.2206 Z M 7.30978,5.81098L 8.08202,11.082L 12.2458,8.91536L 12.0354,3.99514L 7.30978,5.81098 Z M 8.4002,13.2608L 8.9521,17.0316L 12.4904,14.6479L 12.3357,11.0207L 8.4002,13.2608 Z "/>
</svg>

<?xml version="1.0" encoding="UTF-8" standalone="no"?>
<svg xmlns:rdf="http://www.w3.org/1999/02/22-rdf-syntax-ns#" xmlns="http://www.w3.org/2000/svg" xml:space="preserve" height="24" width="24" version="1.1" enable-background="new 0 0 24.00 24.00" xmlns:cc="http://creativecommons.org/ns#" xmlns:dc="http://purl.org/dc/elements/1.1/" viewBox="0 0 24.00 24.00"><path stroke-linejoin="round" d="m7.1107 19.125l2.2566 2.396-0.3863-2.638-2.4112-2.371 0.5409 2.613zm2.4304 2.875l-0.0221-0.002-0.0219-0.006-0.0168-0.008-0.0267-0.022-2.5406-2.697c-0.0153-0.016-0.0256-0.036-0.0301-0.058l-0.6282-3.034-0.0018-0.038c0.0019-0.015 0.0069-0.031 0.0146-0.044 0.0099-0.018 0.0243-0.033 0.0421-0.044l0.6747-0.413-1.0182-0.959c-0.0179-0.017-0.0301-0.038-0.0351-0.063l-0.8108-3.917-0.0016-0.039c0.002-0.016 0.0071-0.032 0.0149-0.045 0.0099-0.017 0.0243-0.033 0.0423-0.043l0.0102-0.006 1.0575-0.503-1.4627-1.1402c-0.0226-0.0176-0.0378-0.0424-0.0437-0.0703l-1.0777-5.205-0.0014-0.0397 0.0065-0.0264c0.0083-0.0225 0.0233-0.0424 0.0438-0.0567l0.0328-0.0162 4.8299-1.5045c0.029-0.0091 0.0603-0.0067 0.0878 0.0066l3.5412 1.7087 0.014 0.0077c0.032 0.0212 0.052 0.0565 0.054 0.0952l0.22 5.1631c0.002 0.0465-0.023 0.09-0.064 0.1116l-1.314 0.6839 1.404 0.9432 0.007 0.005c0.029 0.023 0.047 0.059 0.046 0.097l0.058 1.364 1.35-0.825c0.039-0.024 0.089-0.023 0.128 0.002l0.938 0.62 0.025-1.224c0-0.041 0.022-0.079 0.057-0.1l2.305-1.4092c0.037-0.0227 0.083-0.0235 0.121-0.0028l2.731 1.513 0.004 0.003c0.034 0.02 0.056 0.056 0.058 0.095l-0.001 0.023-0.379 2.805c-0.004 0.031-0.02 0.059-0.044 0.078l-2.137 1.704c-0.008 0.006-0.016 0.01-0.024 0.014-0.016 0.008-0.034 0.012-0.053 0.012-0.012-0.001-0.025-0.003-0.038-0.007-0.005-0.002-0.011-0.005-0.017-0.007-0.006-0.004-0.012-0.008-0.017-0.012l-0.791-0.551-0.08 1.311c-0.002 0.034-0.018 0.066-0.045 0.087l-2.615 2.085-0.028 0.019c-0.016 0.008-0.034 0.012-0.051 0.012-0.018 0-0.036-0.004-0.052-0.012l-0.026-0.017-1.091-0.918 0.076 1.787c0.002 0.038-0.015 0.075-0.045 0.099l-3.2683 2.604-0.0225 0.014c-0.0165 0.008-0.0344 0.012-0.0521 0.012zm7.3439-8.8c0.014 0.01 0.025 0.022 0.034 0.035 0.012 0.019 0.019 0.041 0.02 0.063l-0.001 0.01-0.08 1.329 0.747 0.52 0.225-2.607-2.529-1.576-0.023 1.165 1.607 1.061zm-3.008 2.179l-1.153-0.881 0.009 0.207c0.002 0.041-0.018 0.081-0.053 0.104l-0.87 0.586 0.946 0.772 0.027 0.031c0.01 0.017 0.016 0.036 0.017 0.057l0.039 0.903 1.061 0.893-0.023-2.672zm-7.7188-0.852l2.5343 2.387-0.5348-3.654-2.7333-2.277 0.7338 3.544zm-1.1953-5.7702l2.8628 2.2312-0.759-5.1822-3.1157-1.9374 1.0119 4.8884zm13.108 3.7962l-0.221 2.553 1.881-1.5 0.335-2.482-1.995 1.429zm-3.932 5.51l2.386-1.902 0.159-2.617-2.567 1.836 0.022 2.683zm-1.452 1.158l-0.117-2.735-3.3471 2.395 0.4067 2.775 3.0574-2.435zm-5.3772-13.41l0.7722 5.271 4.164-2.1666-0.211-4.9203-4.7252 1.8159zm1.0904 7.45l0.5519 3.771 3.5379-2.384-0.154-3.627-3.9358 2.24z"/></svg>
